assets/images/avatars/user/custom-avatars/season-f1/helmet-green400.svg

<svg width="52" height="52" viewBox="0 0 52 52" fill="none" xmlns="http://www.w3.org/2000/svg">
<g clip-path="url(#clip0_26_81617)">
<rect width="52" height="52" fill="#03D47C"/>
<path d="M26 52C40.3594 52 52 40.3594 52 26C52 11.6406 40.3594 0 26 0C11.6406 0 0 11.6406 0 26C0 40.3594 11.6406 52 26 52Z" fill="#03D47C"/>
<path d="M26.0001 46.7669C37.4692 46.7669 46.7668 37.4693 46.7668 26.0002C46.7668 14.531 37.4692 5.2334 26.0001 5.2334C14.5309 5.2334 5.23328 14.531 5.23328 26.0002C5.23328 37.4693 14.5309 46.7669 26.0001 46.7669Z" fill="#03D47C" stroke="#002140" stroke-width="0.65" stroke-miterlimit="10"/>
<path d="M40.6059 27.25L40.7928 27.2846C40.3809 29.7005 39.6783 31.9156 38.8927 34.3522V34.4076C38.4116 34.5288 37.9339 34.6776 37.4667 34.8541C35.8607 35.4494 34.3378 36.3285 32.8841 37.2457C30.4787 38.7582 28.1078 40.4265 25.3839 41.233C22.7119 42.0221 19.7942 41.8767 17.1879 40.9145C16.34 40.603 15.5266 40.2085 14.7617 39.7274L14.7167 39.6824C14.4606 38.6371 14.2252 37.6092 14.021 36.5847C15.177 37.9276 17.0149 38.5402 18.787 38.5506C20.5902 38.561 23.0372 38.1456 24.7263 37.5122C31.1813 35.0825 35.7638 32.1648 40.6059 27.25Z" fill="#5BE3AA"/>
<path d="M38.1486 13.4742C38.9273 14.5195 39.5434 15.6686 40.0072 16.88C37.6605 19.2959 34.8293 21.2445 31.7351 22.577C31.2644 22.4697 30.7625 22.3659 30.2364 22.2724C28.8208 22.0129 27.2322 21.8017 25.5985 21.6356C23.3107 21.4002 20.9398 21.2514 18.8562 21.1753C16.9145 21.1026 15.222 21.0991 14.0764 21.1476V21.1337C15.0767 17.8076 16.8799 14.741 19.5 12.4705C19.5173 12.4532 19.5381 12.4394 19.5554 12.4255L19.5934 12.4705C18.4513 13.4327 17.8317 15.2187 17.6552 16.7035C17.5964 17.2123 17.6033 17.7418 17.7902 18.2195C18.1329 19.0917 19.0327 19.6524 19.9569 19.8185C20.881 19.9846 21.8293 19.815 22.7431 19.597C27.9209 18.3579 32.7008 15.4886 36.2276 11.5014L36.2553 11.4668C36.9614 12.0621 37.5982 12.7336 38.1486 13.4742Z" fill="#5BE3AA"/>
<path d="M33.5279 9.73311L33.4691 9.86463C31.3647 12.7166 28.1528 14.7275 24.6675 15.3748C23.7295 15.5478 22.5804 15.5409 22.037 14.7552C21.6147 14.1461 21.7601 13.3085 22.0335 12.6197C22.6462 11.0795 23.9683 9.89578 25.4566 9.17241L25.4428 9.12741C26.0242 8.96128 26.6195 8.84014 27.2356 8.75015C29.3815 8.43865 31.5689 8.82283 33.5279 9.73311Z" fill="#5BE3AA"/>
<path d="M37.484 34.9064C37.9132 35.2491 37.7886 35.9828 37.6052 36.1905C37.4218 36.4016 37.1483 36.5089 36.8887 36.6127C32.6212 38.3329 30.5306 41.3718 26.0208 42.2959C24.5671 42.5936 23.1931 42.7355 21.7082 42.6663C20.3653 42.6074 18.8943 42.3686 17.6725 41.7006C17.5064 41.6106 17.0184 41.3891 17.188 40.9184C19.7942 41.8771 22.712 42.0225 25.3839 41.2334C28.1079 40.4269 30.4787 38.7586 32.8842 37.2461C34.3379 36.3289 35.8608 35.4498 37.4667 34.8545L37.484 34.9064Z" fill="#002140"/>
<path d="M31.7351 22.577C32.2058 22.6878 32.6488 22.802 33.0503 22.9266C33.0503 22.9266 33.1195 24.5118 32.9811 25.7613L32.808 25.744L21.8951 32.2578L21.902 32.5555C21.189 32.5797 20.4553 32.5555 19.7042 32.4759C17.9183 32.282 16.5096 31.9463 15.4089 31.5725L15.4297 31.5171L30.1845 22.5632L30.2364 22.2725C30.7625 22.3659 31.2644 22.4697 31.7351 22.577Z" fill="#B1F2D6"/>
<path d="M32.8081 25.7441L32.9811 25.7614C32.9673 25.9172 32.9465 26.066 32.9223 26.2079C32.7112 27.4885 32.1124 29.278 32.1124 29.278C32.1124 29.278 27.7168 32.393 21.9021 32.5556L21.8951 32.258L32.8081 25.7441Z" fill="#002140"/>
<path d="M30.2364 22.2726L30.1845 22.5633L15.4297 31.5173L15.4089 31.5726C14.4502 31.2473 13.7234 30.8873 13.18 30.5551C12.6816 30.254 12.3354 29.9771 12.1105 29.7694L12.242 29.7036L25.5881 21.7327L25.5985 21.6357C27.2321 21.8019 28.8208 22.013 30.2364 22.2726Z" fill="#002140"/>
<path d="M25.5985 21.6361L25.5881 21.733L12.242 29.704L12.1105 29.7698C11.9997 29.6729 11.9201 29.5932 11.8613 29.5344C11.7055 28.2192 11.7124 26.762 11.792 25.613H11.8163L18.8527 21.2208V21.1758C20.9398 21.2519 23.3107 21.4008 25.5985 21.6361Z" fill="#B1F2D6"/>
<path d="M18.8562 21.1753V21.2203L11.8162 25.6124H11.792C11.7989 25.4948 11.8058 25.3805 11.8162 25.2698C11.9443 23.778 12.415 22.1167 12.6261 21.3068C12.8338 21.2306 13.3426 21.1787 14.0763 21.1476C15.222 21.0991 16.9145 21.1026 18.8562 21.1753Z" fill="#002140"/>
<path d="M14.0764 21.1341C15.0767 17.8079 16.8799 14.7414 19.5 12.4709C19.5173 12.4536 19.5381 12.4397 19.5554 12.4259C21.5248 10.7299 23.3972 9.69157 25.4428 9.12741C26.0242 8.96128 26.6195 8.84014 27.2356 8.75015C29.3815 8.43865 31.569 8.82283 33.528 9.73311C34.5075 10.1865 35.4281 10.7715 36.2553 11.4671C36.9614 12.0625 37.5982 12.7339 38.1486 13.4746C38.9273 14.5198 39.5434 15.6689 40.0072 16.8803C41.0351 19.5419 41.3363 22.5081 41.0524 25.367C40.9867 26.0246 40.9002 26.6615 40.7929 27.2845C40.381 29.7004 39.6784 31.9155 38.8927 34.3521" stroke="#002140" stroke-width="0.65" stroke-linecap="round" stroke-linejoin="round"/>
<path d="M14.7167 39.6821C14.4606 38.6369 14.2252 37.6089 14.021 36.5844C13.6126 34.5804 13.3115 32.6007 13.1799 30.5586" stroke="#002140" stroke-width="0.65" stroke-linecap="round" stroke-linejoin="round"/>
<path d="M14.7617 39.727C15.5266 40.2081 16.34 40.6026 17.188 40.9141C19.7942 41.8763 22.7119 42.0217 25.3839 41.2326C28.1078 40.4261 30.4787 38.7579 32.8842 37.2453C34.3379 36.3281 35.8608 35.449 37.4667 34.8537C37.934 34.6772 38.4116 34.5284 38.8962 34.4072" stroke="#002140" stroke-width="0.65" stroke-linecap="round" stroke-linejoin="round"/>
<path d="M11.792 25.6124C11.799 25.4947 11.8059 25.3805 11.8163 25.2698C11.9443 23.778 12.415 22.1167 12.6262 21.3068C12.8338 21.2306 13.3426 21.1787 14.0764 21.1476C15.222 21.0991 16.9145 21.1026 18.8562 21.1753C20.9398 21.2514 23.3107 21.4002 25.5985 21.6356C27.2321 21.8017 28.8208 22.0129 30.2364 22.2724C30.7625 22.3659 31.2644 22.4697 31.7351 22.577C32.2058 22.6878 32.6488 22.802 33.0503 22.9266C33.0503 22.9266 33.1195 24.5118 32.9811 25.7613C32.9672 25.917 32.9465 26.0658 32.9222 26.2077C32.7111 27.4884 32.1123 29.2778 32.1123 29.2778C32.1123 29.2778 27.7167 32.3928 21.902 32.5555C21.189 32.5797 20.4552 32.5554 19.7042 32.4758C17.9182 32.282 16.5096 31.9463 15.4089 31.5725C14.4502 31.2471 13.7233 30.8872 13.1799 30.5549C12.6815 30.2538 12.3354 29.9769 12.1105 29.7692C11.9997 29.6723 11.9201 29.5927 11.8613 29.5339C11.7055 28.2187 11.7124 26.7615 11.792 25.6124Z" stroke="#002140" stroke-width="0.65" stroke-linecap="round" stroke-linejoin="round"/>
<path d="M17.188 40.9182C17.0184 41.3889 17.5064 41.6105 17.6725 41.7004C18.8943 42.3684 20.3653 42.6073 21.7082 42.6661C23.1931 42.7353 24.5671 42.5934 26.0208 42.2958C30.5306 41.3716 32.6212 38.3328 36.8887 36.6126C37.1483 36.5087 37.4218 36.4015 37.6052 36.1903C37.7886 35.9827 37.9132 35.2489 37.484 34.9062" stroke="#002140" stroke-width="0.65" stroke-linecap="round" stroke-linejoin="round"/>
<path d="M25.4566 9.17285C23.9683 9.89623 22.6462 11.0799 22.0335 12.6201C21.7601 13.3089 21.6147 14.1465 22.037 14.7557C22.5804 15.5413 23.7295 15.5483 24.6675 15.3752C28.1528 14.728 31.3647 12.717 33.4691 9.86508" stroke="#002140" stroke-width="0.65" stroke-linecap="round" stroke-linejoin="round"/>
<path d="M19.5934 12.4711C18.4512 13.4333 17.8317 15.2192 17.6552 16.704C17.5963 17.2128 17.6032 17.7424 17.7901 18.22C18.1328 19.0922 19.0327 19.6529 19.9568 19.819C20.8809 19.9852 21.8293 19.8156 22.743 19.5975C27.9209 18.3584 32.7007 15.4892 36.2276 11.502" stroke="#002140" stroke-width="0.65" stroke-linecap="round" stroke-linejoin="round"/>
<path d="M31.7283 22.5813C31.7283 22.5813 31.7283 22.5779 31.7352 22.5779C34.8294 21.2454 37.6606 19.2967 40.0073 16.8809" stroke="#002140" stroke-width="0.65" stroke-linecap="round" stroke-linejoin="round"/>
<path d="M13.9622 36.5189C13.9795 36.5431 14.0002 36.5639 14.021 36.5847C15.177 37.9276 17.0149 38.5402 18.787 38.5506C20.5902 38.561 23.0372 38.1456 24.7263 37.5122C31.1813 35.0825 35.7638 32.1648 40.6059 27.25" stroke="#002140" stroke-width="0.65" stroke-linecap="round" stroke-linejoin="round"/>
</g>
<defs>
<clipPath id="clip0_26_81617">
<rect width="52" height="52" fill="white"/>
</clipPath>
</defs>
</svg>

<svg xmlns="http://www.w3.org/2000/svg" width="52" height="52" fill="none" viewBox="0 0 52 52"><g clip-path="url(#a)"><path fill="#03d47c" d="M0 0h52v52H0z"/><path fill="#03d47c" d="M26 52c14.36 0 26-11.64 26-26S40.36 0 26 0 0 11.64 0 26s11.64 26 26 26"/><path fill="#03d47c" stroke="#002140" stroke-miterlimit="10" stroke-width=".65" d="M26 46.767c11.47 0 20.767-9.298 20.767-20.767S37.469 5.233 26 5.233C14.53 5.233 5.233 14.531 5.233 26c0 11.47 9.298 20.767 20.767 20.767Z"/><path fill="#5be3aa" d="m40.606 27.25.187.035c-.412 2.416-1.115 4.63-1.9 7.067v.056c-.481.12-.96.27-1.426.446-1.606.595-3.13 1.474-4.583 2.392-2.405 1.512-4.776 3.18-7.5 3.987-2.672.79-5.59.644-8.196-.319a13 13 0 0 1-2.426-1.187l-.045-.045a73 73 0 0 1-.696-3.097c1.156 1.343 2.994 1.955 4.766 1.966 1.803.01 4.25-.405 5.94-1.039 6.454-2.43 11.037-5.347 15.879-10.262m-2.457-13.776a14.2 14.2 0 0 1 1.858 3.406 25.8 25.8 0 0 1-8.272 5.697c-.47-.107-.973-.211-1.499-.305a60 60 0 0 0-4.637-.636 105 105 0 0 0-6.743-.46c-1.942-.073-3.634-.077-4.78-.028v-.014c1-3.326 2.804-6.393 5.424-8.663.017-.018.038-.032.055-.046l.038.045c-1.142.963-1.761 2.749-1.938 4.233-.059.51-.052 1.039.135 1.517.343.872 1.243 1.432 2.167 1.599.924.166 1.872-.004 2.786-.222a26.3 26.3 0 0 0 13.485-8.096l.027-.034a12 12 0 0 1 1.894 2.007"/><path fill="#5be3aa" d="m33.528 9.733-.059.132a14.3 14.3 0 0 1-8.801 5.51c-.938.173-2.088.166-2.631-.62-.422-.609-.277-1.447-.003-2.135.612-1.54 1.934-2.724 3.423-3.448l-.014-.045a14 14 0 0 1 1.793-.377c2.145-.311 4.333.073 6.292.983"/><path fill="#002140" d="M37.484 34.906c.43.343.305 1.077.121 1.285-.183.21-.457.318-.716.422-4.268 1.72-6.358 4.759-10.868 5.683-1.454.298-2.828.44-4.313.37-1.343-.059-2.814-.297-4.035-.965-.167-.09-.655-.312-.485-.783 2.606.96 5.524 1.105 8.196.315 2.724-.806 5.095-2.474 7.5-3.987 1.454-.917 2.977-1.796 4.583-2.392z"/><path fill="#b1f2d6" d="M31.735 22.577c.47.11.914.225 1.315.35 0 0 .07 1.585-.069 2.834l-.173-.017-10.913 6.514.007.297q-1.07.039-2.198-.08c-1.786-.193-3.194-.529-4.295-.902l.02-.056 14.756-8.954.051-.29q.79.142 1.5.304"/><path fill="#002140" d="m32.808 25.744.173.017a6 6 0 0 1-.059.447c-.21 1.28-.81 3.07-.81 3.07s-4.395 3.115-10.21 3.278l-.007-.298zm-2.572-3.471-.052.29-14.754 8.954-.021.056a11 11 0 0 1-2.229-1.018 6.6 6.6 0 0 1-1.07-.786l.132-.065 13.346-7.971.01-.097c1.634.166 3.223.377 4.638.637"/><path fill="#b1f2d6" d="m25.599 21.636-.01.097-13.347 7.971-.132.066c-.11-.097-.19-.177-.249-.236-.155-1.315-.149-2.772-.069-3.921h.024l7.037-4.392v-.045c2.087.076 4.458.225 6.746.46"/><path fill="#002140" d="M18.856 21.175v.045l-7.04 4.392h-.024q.01-.176.024-.342c.128-1.492.599-3.153.81-3.963.208-.076.717-.128 1.45-.16 1.146-.048 2.839-.044 4.78.028"/><path stroke="#002140" stroke-linecap="round" stroke-linejoin="round" stroke-width=".65" d="M14.076 21.134c1-3.326 2.804-6.393 5.424-8.663.017-.017.038-.031.055-.045 1.97-1.696 3.842-2.734 5.888-3.299a14 14 0 0 1 1.793-.377c2.145-.311 4.333.073 6.292.983.98.454 1.9 1.038 2.727 1.734a12 12 0 0 1 1.894 2.008 14.2 14.2 0 0 1 1.858 3.405c1.028 2.662 1.33 5.628 1.045 8.487a27 27 0 0 1-.26 1.918c-.411 2.415-1.114 4.63-1.9 7.067m-24.175 5.33a73 73 0 0 1-.696-3.098c-.408-2.004-.71-3.983-.841-6.025m1.582 9.168c.765.481 1.578.876 2.426 1.187 2.606.962 5.524 1.108 8.196.319 2.724-.807 5.095-2.475 7.5-3.988 1.454-.917 2.977-1.796 4.583-2.391q.701-.266 1.43-.447"/><path stroke="#002140" stroke-linecap="round" stroke-linejoin="round" stroke-width=".65" d="M11.792 25.612q.01-.176.024-.342c.128-1.492.599-3.153.81-3.963.208-.076.717-.128 1.45-.16 1.146-.048 2.839-.044 4.78.028 2.084.076 4.455.225 6.743.46 1.633.167 3.222.378 4.637.637q.79.143 1.5.305c.47.11.913.225 1.314.35 0 0 .07 1.585-.069 2.834a6 6 0 0 1-.059.447c-.21 1.28-.81 3.07-.81 3.07s-4.395 3.115-10.21 3.278q-1.07.038-2.198-.08c-1.786-.194-3.194-.53-4.295-.903a11 11 0 0 1-2.23-1.018 6.6 6.6 0 0 1-1.318-1.021c-.155-1.315-.149-2.772-.069-3.922m5.396 15.306c-.17.47.318.693.485.782 1.221.668 2.692.907 4.035.966 1.485.07 2.86-.073 4.313-.37 4.51-.924 6.6-3.963 10.868-5.683.26-.104.533-.212.716-.423.184-.207.308-.941-.121-1.284M25.457 9.173c-1.489.723-2.81 1.907-3.424 3.447-.273.689-.418 1.527.004 2.136.543.785 1.693.792 2.63.62a14.3 14.3 0 0 0 8.802-5.51"/><path stroke="#002140" stroke-linecap="round" stroke-linejoin="round" stroke-width=".65" d="M19.593 12.471c-1.142.962-1.761 2.748-1.938 4.233-.059.509-.052 1.038.135 1.516.343.872 1.243 1.433 2.167 1.599s1.872-.003 2.786-.221a26.3 26.3 0 0 0 13.485-8.096m-4.5 11.079s0-.003.007-.003a25.8 25.8 0 0 0 8.272-5.697M13.962 36.519l.059.066c1.156 1.343 2.994 1.955 4.766 1.966 1.803.01 4.25-.405 5.94-1.039 6.454-2.43 11.037-5.347 15.879-10.262"/></g><defs><clipPath id="a"><path fill="#fff" d="M0 0h52v52H0z"/></clipPath></defs></svg>
